X:1
T:The irish girl
M:9/8
R:Slip Jig
K:Bm
"B"d2 B BFB "B"BFB|dcd "A"Bdf edc|"B"~d2 B BFB BFB|[1"A"cAc agf ecA:|[2"A"cBc efa ecA|
|:"B"def fge f2e|"B"def fge "A"afe|"B"def fge fga|[1"E"bag {b}"A"agf ecA:|[2"E"bag agf efe|]

